X:1
T:Title
T:Tech Triumph
T:Hokie Bird 
C:Composer
L:1/8
Q:1/4=160
M:4/4
K:C
V:1 treble nm="Piano" snm="Pno."
V:1
"^\n" F>G A_B cde=e | f4 f4 | F F2 ^F G G2 A | _B>c d_B c2 _B2 | F>G A_B c_BAG | _B4 A4 | %6
 F F2 ^F G G2 ^G | A>c _BG A4 | F>G A_B cBAG | G4 F4 | F F2 ^F G G2 A | _B>c dB c2 B2 | %12
 F>G A_B cBA_A | G4 G4 | G>A _BA cBAG | G2 F2 E2 F2 | G>A _B=B c2 G2 | c4 c4 | cf/f/ ff z _BAB | %19
 AGF^F G4 | d4 z dcd | fdcd f2 ^f2 | g2 a2 z _BAB | AGFG A4 | c4 z _BAB | AGcd c z A2 | %26
 G2 F2 z _BAB | AGF^F G4 | d4 z dcd | f_edc f4 | fFGA _B B3 | d d3 _e e3 | =e4 fFG_B | c2 f2 _b4 | %34
 _b z b z4 z |] %35

